X: 117
T: Yifu shouzhuo The two golden bracelets
%%abc-version 2.0
%%abcx-abcm2ps-target-version 5.9.1 (29 Sep 2008)
%%abc-creator hum2abc beta
%%abcx-conversion-date 2013/10/02 07:44:27
%%abc-edited-by Helmut Schaffrath
%%humdrum-veritas 1791562685
%%humdrum-veritas-data 20179554
%%continueall 1
%%barnumbers 0
L: 1/8
M: 2/4
K: C
E EA2 [I:setbarnb 1]| 
G AA,2 | 
D D E G | 
A4 | 
C D E A | 
E E G, A, | 
D2C E | 
A,4 | 
E EA2 | 
G AA,2 | 
D D E G | 
A4 | 
C D E A | 
E E G, A, | 
D2C E | 
A,4 |]  



